X:292
T:Rosza
R:mazurka 32 waltz
C:Undine Hornby (Late Night Band)
O:UK, England, Oxon.
Z:PJHeadford
M:6/8
L:1/16
Q:3/8=60
K:Gm
edB|:G2GBdg b2bgdG|e2cdef dedcBA|\
G2GBdg b2bgdg|1edcdef d3edB:|2e2cdef d4d2|]
e2gab2 d2gab2|abc'2ba b2a2g2|\
e2gab2 d2gab2|abc'2ba g3fed|
egabag dgabag|abc'2ba b2a2g2|\
egabag dgabag|abc'2ba g3|]

